static/logos/togglTrack-glyph-color.svg

<svg width="50" height="33" viewBox="0 0 50 33" fill="none" xmlns="http://www.w3.org/2000/svg">
<g clip-path="url(#clip0_1_660)">
<path d="M32.5531 16.2589C32.5249 15.4325 32.2772 14.5566 31.6468 13.9796C30.9422 13.336 29.9226 13.04 28.9755 13.04H24.7537C24.337 13.04 23.9669 12.7314 23.9669 12.3503C23.9669 12.0302 24.1887 11.7618 24.4899 11.6837C24.4887 11.6837 24.5606 11.6653 24.6381 11.6411C25.3939 11.9986 26.2468 12.1601 27.0979 12.1601C28.4002 12.1601 29.7054 11.7831 30.6611 10.9026C31.591 10.0463 32.0255 8.84745 32.0255 7.62159C32.0255 6.39515 31.591 5.19632 30.6606 4.34C30.3885 4.09057 30.0857 3.87697 29.7594 3.70437C30.656 3.90897 31.5812 3.65552 32.2192 2.57218L30.4249 1.30206L28.9272 3.35552C28.3348 3.17184 27.7176 3.08016 27.0973 3.08368C25.7956 3.08368 24.4899 3.46069 23.5347 4.34115C22.6042 5.19747 22.1698 6.39573 22.1698 7.62217C22.1698 8.8486 22.6042 10.0463 23.5347 10.9038C23.6152 10.9785 23.6991 11.0486 23.7847 11.1164L23.6106 11.2072C23.2663 11.3969 22.8462 11.6998 22.4301 12.1365C21.8399 12.7544 21.2502 13.6819 21.2502 14.9141C21.2502 14.9141 21.168 17.5452 24.2341 17.5452H26.4554C26.9663 17.5452 27.487 17.8658 27.487 18.3693C27.487 18.5515 27.4324 18.7222 27.3387 18.8647H31.5858C32.2289 18.1607 32.5841 17.1624 32.5531 16.2589ZM26.3445 6.81067C26.5542 6.60378 26.8416 6.51469 27.1278 6.51469C27.414 6.51469 27.7008 6.60378 27.9106 6.81067C28.1152 7.01182 28.2106 7.29401 28.2106 7.58251C28.2106 7.87102 28.1152 8.15263 27.9106 8.35435C27.7008 8.56125 27.414 8.65033 27.1278 8.65033C26.8416 8.65033 26.5542 8.56182 26.3445 8.35435C26.1399 8.1532 26.0445 7.87159 26.0445 7.58251C26.0445 7.29401 26.1399 7.0124 26.3445 6.81067Z" fill="#E57CD8"/>
<path d="M44.6416 16.2589C44.6129 15.4325 44.3658 14.5566 43.7348 13.9796C43.0307 13.336 42.0112 13.04 41.0641 13.04L36.1623 13.0049C35.8537 13.0049 35.6175 12.8135 35.6175 12.5314C35.6175 12.2986 35.7348 11.9515 36.0302 11.8934C36.617 12.0734 37.2278 12.1634 37.8416 12.1601C39.1439 12.1601 40.4491 11.7831 41.4049 10.9026C42.3348 10.0463 42.7692 8.84745 42.7692 7.62159C42.7692 6.39515 42.3348 5.19632 41.4049 4.34C41.133 4.09041 40.8304 3.8766 40.5043 3.70379C41.4008 3.90838 42.3261 3.65494 42.9635 2.57161L41.1692 1.30206L39.6721 3.35552C39.0795 3.17184 38.4621 3.08017 37.8416 3.08368C36.5399 3.08368 35.2348 3.46069 34.279 4.34115C33.3485 5.1969 32.9141 6.39515 32.9141 7.62159C32.9141 8.84803 33.3491 10.0457 34.279 10.9032C34.5549 11.1566 34.8595 11.3687 35.1848 11.5417C34.9698 11.7026 34.7439 11.8998 34.5181 12.136C33.929 12.7544 33.3388 13.6819 33.3388 14.9141C33.3388 14.9141 33.2572 17.5452 36.3233 17.5452H38.5439C39.0549 17.5452 39.5756 17.8658 39.5756 18.3693C39.5756 18.5515 39.521 18.7222 39.4273 18.8647H43.6744C44.3175 18.1607 44.6733 17.1624 44.6416 16.2589ZM37.1187 6.81067C37.3284 6.60378 37.6152 6.51469 37.902 6.51469C38.1882 6.51469 38.475 6.60378 38.6853 6.81067C38.8894 7.01182 38.9853 7.29401 38.9853 7.58251C38.9853 7.87102 38.8894 8.15263 38.6853 8.35435C38.475 8.56125 38.1882 8.65033 37.902 8.65033C37.6152 8.65033 37.3284 8.56182 37.1187 8.35435C36.9141 8.1532 36.8187 7.87159 36.8187 7.58251C36.8187 7.29401 36.9141 7.0124 37.1187 6.81067Z" fill="#E57CD8"/>
<path d="M49.7869 14.9092V10.9822C48.8719 11.0966 48.5536 10.4609 48.5536 9.82933V0.240234H44.0156V10.546C44.0156 11.8259 44.2087 12.8931 44.6771 13.5644C45.3972 14.5868 46.3708 15.2558 48.3076 15.2638C48.6651 15.2483 49.2616 15.1788 49.7869 14.9092Z" fill="#E57CD8"/>
<path d="M19.7078 4.796C18.5354 3.61784 16.936 3.11267 15.3388 3.11267C13.7423 3.11267 12.1417 3.61842 10.971 4.796C9.82963 5.94312 9.29688 7.54714 9.29688 9.18852C9.29688 10.8305 9.82963 12.4339 10.9704 13.581C12.1417 14.7592 13.7423 15.2638 15.3388 15.2638C16.936 15.2638 18.536 14.7592 19.7078 13.581C20.848 12.4339 21.3814 10.8299 21.3814 9.18852C21.3814 7.54714 20.848 5.94254 19.7078 4.796ZM16.3262 10.1333C16.0549 10.4012 15.6842 10.515 15.3147 10.515C14.9446 10.515 14.5739 10.4012 14.3032 10.1333C14.0388 9.873 13.9153 9.50864 13.9153 9.13622C13.9153 8.76323 14.0383 8.39944 14.3026 8.1391C14.5739 7.87185 14.9446 7.75691 15.3141 7.75691C15.6842 7.75691 16.0555 7.87185 16.3262 8.1391C16.5906 8.39944 16.7141 8.76323 16.7141 9.13622C16.7141 9.50864 16.5906 9.873 16.3262 10.1333Z" fill="#E57CD8"/>
<path d="M7.66379 10.9977C6.90862 10.9977 6.6 10.7701 6.32069 10.4207C6.14023 10.1926 6.05057 9.85749 6.05057 9.42301V7.39025H8.58276V3.74656H6.05V0.240234H2.81264V1.55058C2.81264 3.00288 1.69023 4.18046 0.305747 4.18046C0.203513 4.1801 0.1014 4.17338 0 4.16035V7.39025H1.7V10.6362C1.7 11.9132 1.93391 12.8977 2.40115 13.5678C3.12356 14.5937 3.92414 15.2644 5.87874 15.2644C7.01207 15.2644 7.96092 15.0075 8.58276 14.665V10.8471C8.34828 10.9357 8.03103 10.9977 7.66322 10.9977" fill="#E57CD8"/>
<path d="M5.47069 31.9494C5.21149 31.9828 4.95057 31.9989 4.68908 31.9977C3.81839 31.9977 3.16552 31.7965 2.72989 31.3942C2.29483 30.9908 2.07702 30.2885 2.07702 29.2879V23.2046H0V22.1517H2.07702V19.5391H3.28391V22.1517H6.15287V23.2046H3.28391V29.346C3.28391 29.8661 3.38966 30.2529 3.60057 30.5069C3.81149 30.7598 4.19425 30.8862 4.74828 30.8862C5.05172 30.8862 5.31552 30.8741 5.53966 30.8477C5.76379 30.8218 5.98793 30.7891 6.21207 30.75V31.8034C5.96149 31.8684 5.71437 31.9166 5.47069 31.9494Z" fill="#E57CD8"/>
<path d="M10.2843 22.4263C10.8119 22.0229 11.451 21.8212 12.2033 21.8212C12.4803 21.8212 12.8033 21.8545 13.1728 21.9189V23.1671C13.0033 23.1304 12.8314 23.1042 12.6584 23.0889C12.5004 23.0759 12.3418 23.0694 12.1831 23.0694C11.6027 23.0694 11.1182 23.1797 10.7291 23.401C10.3458 23.6163 10.0228 23.9247 9.78946 24.2975C9.5521 24.6746 9.38371 25.1228 9.28486 25.6429C9.18371 26.1896 9.13429 26.7445 9.13658 27.3004V31.8044H7.92969V22.0556H9.09693V24.2786C9.3613 23.4464 9.7567 22.8292 10.2843 22.4263ZM14.6354 23.2447C14.8326 22.9463 15.0883 22.691 15.3866 22.4942C15.7033 22.2798 16.086 22.1142 16.5343 21.997C16.9826 21.8797 17.517 21.8212 18.1372 21.8212C19.4556 21.8212 20.432 22.12 21.0647 22.7182C21.6981 23.3159 22.0147 24.2136 22.0147 25.409V31.8044H20.8078V29.7182C20.5044 30.4596 20.0331 31.0246 19.3929 31.4142C18.7533 31.8044 18.0182 31.9998 17.1872 31.9998C16.6464 31.9998 16.1682 31.9246 15.7527 31.7757C15.3372 31.6263 14.9912 31.4211 14.7142 31.1608C14.4366 30.8997 14.2199 30.5801 14.0808 30.2251C13.9343 29.8528 13.8607 29.4558 13.8636 29.0556C13.8636 28.1452 14.163 27.4498 14.7636 26.9694C15.3636 26.4878 16.1188 26.2021 17.0291 26.1108L20.313 25.7993C20.6429 25.7602 20.8073 25.624 20.8073 25.3895V25.0389C20.8073 24.3757 20.6033 23.8521 20.1946 23.4694C19.7854 23.0861 19.1199 22.8941 18.1964 22.8941C16.5211 22.8941 15.5515 23.505 15.2883 24.7269L14.2193 24.1608C14.3113 23.8364 14.4515 23.5276 14.6349 23.2447H14.6354ZM17.2067 27.2217C16.455 27.3004 15.9211 27.5113 15.6044 27.8562C15.2883 28.201 15.1297 28.6004 15.1297 29.0556C15.1297 29.6142 15.3176 30.0596 15.6929 30.3906C16.0693 30.7223 16.6199 30.8878 17.3458 30.8878C17.8992 30.8878 18.3906 30.7935 18.8193 30.6056C19.2268 30.4316 19.5969 30.1798 19.9078 29.8642C20.2004 29.5656 20.4291 29.2107 20.5803 28.8211C20.7297 28.4423 20.8073 28.0388 20.8078 27.6315V26.8332L17.2067 27.2228V27.2217ZM23.7912 24.9021C24.0257 24.2932 24.3826 23.739 24.84 23.274C25.3061 22.8053 25.8653 22.44 26.482 22.2016C27.1216 21.9481 27.8308 21.8217 28.6084 21.8217C29.3211 21.8217 29.9642 21.932 30.5377 22.1527C31.101 22.3672 31.6153 22.6922 32.051 23.1085L31.2797 24.0441C30.9078 23.7128 30.4831 23.4459 30.0234 23.2544C29.5555 23.0636 29.0544 22.9677 28.5492 22.9723C27.9826 22.9723 27.4613 23.0659 26.986 23.2544C26.528 23.4321 26.1107 23.7008 25.7596 24.0441C25.417 24.382 25.1498 24.7981 24.9584 25.2918C24.7676 25.7861 24.6716 26.332 24.6716 26.9297C24.6716 27.5274 24.7676 28.0705 24.959 28.5579C25.1366 29.0247 25.4096 29.4495 25.7596 29.8056C26.109 30.1544 26.5268 30.4269 26.9866 30.6056C27.4785 30.7973 28.0021 30.8932 28.5297 30.8884C29.0837 30.8884 29.6015 30.7872 30.0826 30.5861C30.5642 30.3849 30.9964 30.1148 31.3785 29.7769L32.1101 30.7125C31.6883 31.1027 31.1808 31.4211 30.5872 31.6677C29.9935 31.9148 29.3142 32.0384 28.5492 32.0384C27.7711 32.0384 27.0653 31.9119 26.4326 31.6585C25.7992 31.405 25.2584 31.0539 24.8101 30.6056C24.3561 30.1487 24.0055 29.6 23.7814 28.9964C23.5441 28.3728 23.4251 27.6907 23.4251 26.9493C23.4251 26.2085 23.5469 25.5263 23.7912 24.9021Z" fill="#E57CD8"/>
<path d="M34.7616 28.8994V31.8046H33.5547V18.9655H34.7616V27.3787L39.9645 22.0557H41.6662L37.3731 26.3063L41.765 31.8046H40.1823L36.5616 27.1253L34.7616 28.8994Z" fill="#E57CD8"/>
</g>
<defs>
<clipPath id="clip0_1_660">
<rect width="50" height="32.1839" fill="white"/>
</clipPath>
</defs>
</svg>

<svg xmlns="http://www.w3.org/2000/svg" width="96.97" height="64" fill="none" viewBox="0 0 50 33"><g fill="#E57CD8" clip-path="url(#a)"><path d="M32.553 16.259c-.028-.827-.276-1.702-.906-2.28-.705-.643-1.724-.939-2.671-.939h-4.222c-.417 0-.787-.309-.787-.69 0-.32.222-.588.523-.666-.001 0 .07-.019.148-.043.756.358 1.609.52 2.46.52 1.302 0 2.607-.378 3.563-1.258.93-.857 1.364-2.056 1.364-3.281 0-1.227-.434-2.426-1.364-3.282a4.33 4.33 0 0 0-.902-.636c.897.205 1.822-.048 2.46-1.132l-1.794-1.27-1.498 2.054a6.063 6.063 0 0 0-1.83-.272c-1.301 0-2.607.377-3.562 1.257-.93.856-1.365 2.055-1.365 3.281 0 1.227.434 2.424 1.365 3.282.08.075.164.145.25.212l-.174.091a5 5 0 0 0-1.18.93c-.591.617-1.18 1.545-1.18 2.777 0 0-.083 2.631 2.983 2.631h2.221c.511 0 1.032.32 1.032.824a.9.9 0 0 1-.148.496h4.247a3.803 3.803 0 0 0 .967-2.606ZM26.345 6.81c.21-.207.497-.296.783-.296.286 0 .573.089.783.296.204.2.3.483.3.772 0 .288-.096.57-.3.771a1.1 1.1 0 0 1-.783.296c-.286 0-.574-.088-.784-.296a1.069 1.069 0 0 1-.3-.771c0-.289.096-.57.3-.772ZM44.642 16.259c-.03-.827-.276-1.702-.907-2.28-.704-.643-1.724-.939-2.67-.939l-4.903-.035c-.308 0-.544-.192-.544-.474 0-.232.117-.58.412-.638.587.18 1.198.27 1.812.267 1.302 0 2.607-.377 3.563-1.257.93-.857 1.364-2.056 1.364-3.281 0-1.227-.434-2.426-1.364-3.282a4.33 4.33 0 0 0-.9-.636c.896.204 1.821-.05 2.459-1.132l-1.795-1.27-1.497 2.054a6.067 6.067 0 0 0-1.83-.272c-1.302 0-2.607.377-3.563 1.257-.93.856-1.365 2.054-1.365 3.28 0 1.227.435 2.425 1.365 3.282.276.254.58.466.906.639a5.42 5.42 0 0 0-.667.594c-.589.618-1.18 1.546-1.18 2.778 0 0-.08 2.631 2.985 2.631h2.22c.512 0 1.033.32 1.033.824a.9.9 0 0 1-.149.496h4.247a3.8 3.8 0 0 0 .968-2.606ZM37.119 6.81a1.1 1.1 0 0 1 .783-.296c.286 0 .573.089.783.296.204.2.3.483.3.772 0 .288-.096.57-.3.771-.21.207-.497.296-.783.296-.287 0-.574-.088-.783-.296a1.069 1.069 0 0 1-.3-.771c0-.289.095-.57.3-.772Z"/><path d="M49.787 14.91v-3.928c-.915.115-1.233-.521-1.233-1.153V.24h-4.538v10.306c0 1.28.193 2.347.661 3.018.72 1.023 1.694 1.692 3.63 1.7.358-.016.955-.085 1.48-.355ZM19.708 4.796c-1.173-1.178-2.772-1.683-4.37-1.683-1.596 0-3.196.505-4.367 1.683C9.83 5.943 9.297 7.547 9.297 9.189s.533 3.245 1.673 4.392c1.172 1.178 2.772 1.683 4.369 1.683s3.197-.505 4.369-1.683c1.14-1.147 1.673-2.751 1.673-4.392 0-1.642-.533-3.246-1.673-4.393Zm-3.382 5.337c-.271.268-.642.382-1.011.382-.37 0-.741-.114-1.012-.382-.264-.26-.388-.624-.388-.997s.123-.737.388-.997c.27-.267.642-.382 1.011-.382.37 0 .741.115 1.012.382.265.26.388.624.388.997s-.123.737-.388.997ZM7.664 10.998c-.755 0-1.064-.228-1.343-.577-.18-.228-.27-.564-.27-.998V7.39h2.532V3.747H6.05V.24H2.813v1.31c0 1.453-1.123 2.63-2.507 2.63C.204 4.18.1 4.173 0 4.16v3.23h1.7v3.246c0 1.277.234 2.262.701 2.932.723 1.026 1.523 1.696 3.478 1.696 1.133 0 2.082-.256 2.704-.599v-3.818c-.235.089-.552.15-.92.15M5.47 31.95c-.259.033-.52.049-.78.048-.872 0-1.524-.201-1.96-.604-.435-.403-.653-1.105-.653-2.106v-6.083H0v-1.053h2.077v-2.613h1.207v2.613h2.869v1.053h-2.87v6.141c0 .52.107.907.318 1.16.21.254.593.38 1.147.38.304 0 .568-.012.792-.038.224-.026.448-.059.672-.098v1.053c-.25.065-.498.114-.741.146ZM10.284 22.426c.528-.403 1.167-.605 1.92-.605.276 0 .6.034.969.098v1.248a4.166 4.166 0 0 0-.515-.078 5.797 5.797 0 0 0-.475-.02c-.58 0-1.065.11-1.454.332a2.626 2.626 0 0 0-.94.896 3.852 3.852 0 0 0-.504 1.346 8.908 8.908 0 0 0-.148 1.657v4.504H7.93v-9.748h1.167v2.223c.264-.833.66-1.45 1.187-1.853Zm4.351.819a2.65 2.65 0 0 1 .752-.75c.316-.215.699-.38 1.147-.498.449-.117.983-.176 1.603-.176 1.319 0 2.295.299 2.928.897.633.598.95 1.496.95 2.691v6.395h-1.207v-2.086c-.304.742-.775 1.307-1.415 1.696-.64.39-1.375.586-2.206.586-.54 0-1.019-.075-1.434-.224a2.952 2.952 0 0 1-1.039-.615 2.575 2.575 0 0 1-.633-.936 3.132 3.132 0 0 1-.217-1.17c0-.91.299-1.605.9-2.086.6-.481 1.355-.767 2.265-.858l3.284-.312c.33-.039.494-.175.494-.41v-.35c0-.663-.204-1.187-.612-1.57-.41-.383-1.075-.575-1.999-.575-1.675 0-2.645.611-2.908 1.833l-1.069-.566a3.38 3.38 0 0 1 .416-.916Zm2.572 3.977c-.752.078-1.286.29-1.603.634a1.72 1.72 0 0 0-.474 1.2c0 .558.188 1.004.563 1.335.376.331.927.497 1.653.497.553 0 1.045-.095 1.473-.282a3.405 3.405 0 0 0 1.089-.742c.292-.298.521-.653.672-1.043.15-.379.227-.782.228-1.19v-.798l-3.601.39v-.001Zm6.584-2.32a4.762 4.762 0 0 1 1.049-1.628 4.71 4.71 0 0 1 1.642-1.072c.64-.254 1.349-.38 2.126-.38.713 0 1.356.11 1.93.33.563.215 1.077.54 1.513.956l-.771.936a4.477 4.477 0 0 0-1.257-.79 3.812 3.812 0 0 0-1.474-.282c-.566 0-1.088.094-1.563.282a3.635 3.635 0 0 0-1.226.79c-.343.338-.61.754-.802 1.248a4.513 4.513 0 0 0-.286 1.638c0 .597.096 1.14.287 1.628.178.467.45.892.8 1.248.35.348.768.62 1.228.8a4.145 4.145 0 0 0 1.543.282c.554 0 1.072-.1 1.553-.302a4.645 4.645 0 0 0 1.296-.81l.731.936c-.422.39-.93.71-1.523.956-.593.247-1.273.37-2.038.37-.778 0-1.484-.126-2.116-.38a4.768 4.768 0 0 1-1.623-1.052 4.51 4.51 0 0 1-1.029-1.61 5.71 5.71 0 0 1-.356-2.047c0-.74.122-1.423.366-2.047ZM34.762 28.9v2.905h-1.207v-12.84h1.207v8.414l5.203-5.323h1.701l-4.293 4.25 4.392 5.499h-1.583l-3.62-4.68-1.8 1.774Z"/></g><defs><clipPath id="a"><path fill="#fff" d="M0 0h50v32.184H0z"/></clipPath></defs></svg>
